X:1
T: Miss Gibson
C:
R:Strathspey
Q: 128
K:Gm
M:4/4
L:1/16
|:D2|G3A B3c AF3 F3A|G3A B3c dg3 g4|f3d c3B ABcB AF3|GABc d3D G6 D2|
G3A B3c AF3 F3A|G3A B3c dg3 g4|f3d c3B ABcB AF3|GABc d3D G6 A2|
Gg3 g3a f3g fc3|dg3 g3d gaba g2d2|dg3 g3a f3g fc3|fa3 df3 cf3 AF3|
Gg3 g3a f3g fc3|dg3 g3d gaba g2d2|dg3 g3a f3g fc3|d3g bag^f g6:|
